X:1
T:Separation Blues
M:4/4
L:1/8
K:E
 E2 EE C B,3| z B,B, B,C C3| D4 z4| z8| D2 DD C B,3| z B,B, B,C D3|\
 E4 z4| z8| E2 EE EE EE| G G3 G4| C E3 E2 E2| F F3 F2 GG| G2 z G G2 z G|\
 GF GF B G3| E4 z4| z8| C E3 E2 E2| EE EE E2 CE| E E3 E2 E2| C- B,3 z4|\
 C E3 E2 E2| E E3 z2 E2| FF F2 F G3| F2 z2 z4|

